X:7510
T:Ich hrt' ein Sichelein rauschen...
R:
O:
S:source
B:Frau Nachtigall (Straburg - 1928)
Z:<anamnese@caramail.com> -- http://anamnese.fr.st
N:p.74
M:6/8
L:1/8
Q:1/4=150
K:F
F/G/ | "F"(AG) A (cB) A | "Gm"G3 D G/A/ | BA B "C"dc B | "F"A3-A z |: A/B/ |
"F"cd c c f "B"d | "F"c3 A2 F/G/ | "C"AB A "C7"GA G | "F"F3-F z :]
